images/51055283.svg

<?xml version="1.0" encoding="UTF-8"?>
<svg xmlns="http://www.w3.org/2000/svg" xmlns:xlink="http://www.w3.org/1999/xlink" width="300pt" height="300pt" viewBox="0 0 300 300" version="1.1">
<defs>
<g>
<symbol overflow="visible" id="glyph0-0">
<path style="stroke:none;" d="M 0.546875 1.9375 L 0.546875 -7.75 L 6.046875 -7.75 L 6.046875 1.9375 Z M 1.171875 1.328125 L 5.4375 1.328125 L 5.4375 -7.140625 L 1.171875 -7.140625 Z M 1.171875 1.328125 "/>
</symbol>
<symbol overflow="visible" id="glyph0-1">
<path style="stroke:none;" d="M 1.078125 -8.015625 L 2.546875 -8.015625 L 6.09375 -1.3125 L 6.09375 -8.015625 L 7.15625 -8.015625 L 7.15625 0 L 5.6875 0 L 2.125 -6.703125 L 2.125 0 L 1.078125 0 Z M 1.078125 -8.015625 "/>
</symbol>
<symbol overflow="visible" id="glyph0-2">
<path style="stroke:none;" d="M 1.078125 -8.015625 L 2.171875 -8.015625 L 2.171875 -4.734375 L 6.109375 -4.734375 L 6.109375 -8.015625 L 7.1875 -8.015625 L 7.1875 0 L 6.109375 0 L 6.109375 -3.8125 L 2.171875 -3.8125 L 2.171875 0 L 1.078125 0 Z M 1.078125 -8.015625 "/>
</symbol>
<symbol overflow="visible" id="glyph1-0">
<path style="stroke:none;" d="M 0.453125 1.59375 L 0.453125 -6.34375 L 4.953125 -6.34375 L 4.953125 1.59375 Z M 0.953125 1.09375 L 4.453125 1.09375 L 4.453125 -5.84375 L 0.953125 -5.84375 Z M 0.953125 1.09375 "/>
</symbol>
<symbol overflow="visible" id="glyph1-1">
<path style="stroke:none;" d="M 1.734375 -0.75 L 4.828125 -0.75 L 4.828125 0 L 0.65625 0 L 0.65625 -0.75 C 1 -1.09375 1.457031 -1.554688 2.03125 -2.140625 C 2.613281 -2.734375 2.984375 -3.113281 3.140625 -3.28125 C 3.421875 -3.601562 3.613281 -3.875 3.71875 -4.09375 C 3.832031 -4.320312 3.890625 -4.539062 3.890625 -4.75 C 3.890625 -5.101562 3.769531 -5.390625 3.53125 -5.609375 C 3.289062 -5.828125 2.972656 -5.9375 2.578125 -5.9375 C 2.296875 -5.9375 2 -5.882812 1.6875 -5.78125 C 1.382812 -5.6875 1.054688 -5.539062 0.703125 -5.34375 L 0.703125 -6.25 C 1.054688 -6.382812 1.390625 -6.488281 1.703125 -6.5625 C 2.015625 -6.644531 2.300781 -6.6875 2.5625 -6.6875 C 3.238281 -6.6875 3.78125 -6.515625 4.1875 -6.171875 C 4.59375 -5.828125 4.796875 -5.375 4.796875 -4.8125 C 4.796875 -4.539062 4.742188 -4.28125 4.640625 -4.03125 C 4.535156 -3.789062 4.351562 -3.507812 4.09375 -3.1875 C 4.019531 -3.101562 3.785156 -2.859375 3.390625 -2.453125 C 2.992188 -2.046875 2.441406 -1.476562 1.734375 -0.75 Z M 1.734375 -0.75 "/>
</symbol>
<symbol overflow="visible" id="glyph1-2">
<path style="stroke:none;" d="M 4.140625 -5.640625 L 4.140625 -3.1875 L 6.59375 -3.1875 L 6.59375 -2.453125 L 4.140625 -2.453125 L 4.140625 0 L 3.40625 0 L 3.40625 -2.453125 L 0.953125 -2.453125 L 0.953125 -3.1875 L 3.40625 -3.1875 L 3.40625 -5.640625 Z M 4.140625 -5.640625 "/>
</symbol>
</g>
</defs>
<g id="surface21021">
<rect x="0" y="0" width="300" height="300" style="fill:rgb(100%,100%,100%);fill-opacity:1;stroke:none;"/>
<path style="fill:none;stroke-width:1.2;stroke-linecap:butt;stroke-linejoin:miter;stroke:rgb(0%,0%,100%);stroke-opacity:1;stroke-miterlimit:10;" d="M 51.253906 91.28125 L 46.507812 103.246094 "/>
<path style="fill:none;stroke-width:1.2;stroke-linecap:butt;stroke-linejoin:miter;stroke:rgb(0%,0%,0%);stroke-opacity:1;stroke-miterlimit:10;" d="M 46.507812 103.246094 L 41.757812 115.214844 "/>
<path style="fill:none;stroke-width:1.2;stroke-linecap:butt;stroke-linejoin:miter;stroke:rgb(0%,0%,0%);stroke-opacity:1;stroke-miterlimit:10;" d="M 76.945312 92.914062 L 64.101562 92.097656 "/>
<path style="fill:none;stroke-width:1.2;stroke-linecap:butt;stroke-linejoin:miter;stroke:rgb(0%,0%,100%);stroke-opacity:1;stroke-miterlimit:10;" d="M 64.101562 92.097656 L 51.253906 91.28125 "/>
<path style=" stroke:none;fill-rule:nonzero;fill:rgb(100%,100%,100%);fill-opacity:1;" d="M 36.253906 80.78125 L 66.253906 80.78125 L 66.253906 101.78125 L 36.253906 101.78125 Z M 36.253906 80.78125 "/>
<g style="fill:rgb(0%,0%,100%);fill-opacity:1;">
  <use xlink:href="#glyph0-1" x="36.253906" y="93.914062"/>
  <use xlink:href="#glyph0-2" x="44.237305" y="93.914062"/>
</g>
<g style="fill:rgb(0%,0%,100%);fill-opacity:1;">
  <use xlink:href="#glyph1-1" x="52.261719" y="98.796875"/>
</g>
<g style="fill:rgb(0%,0%,100%);fill-opacity:1;">
  <use xlink:href="#glyph1-2" x="57.917969" y="89.03125"/>
</g>
<path style="fill:none;stroke-width:1.2;stroke-linecap:butt;stroke-linejoin:miter;stroke:rgb(0%,0%,0%);stroke-opacity:1;stroke-miterlimit:10;" d="M 41.757812 115.214844 L 61.585938 131.636719 "/>
<path style="fill:none;stroke-width:1.2;stroke-linecap:butt;stroke-linejoin:miter;stroke:rgb(0%,0%,0%);stroke-opacity:1;stroke-miterlimit:10;" d="M 61.585938 131.636719 L 83.332031 117.855469 "/>
<path style="fill:none;stroke-width:1;stroke-linecap:butt;stroke-linejoin:miter;stroke:rgb(0%,0%,0%);stroke-opacity:1;stroke-miterlimit:10;" d="M 61.585938 131.636719 L 61.585938 131.636719 M 60.878906 134.550781 L 61.917969 134.617188 M 60.171875 137.46875 L 62.25 137.601562 M 59.460938 140.382812 L 62.585938 140.582031 M 58.753906 143.296875 L 62.917969 143.5625 M 58.046875 146.214844 L 63.25 146.542969 M 57.339844 149.128906 L 63.582031 149.527344 M 56.632812 152.042969 L 63.914062 152.507812 M 55.921875 154.960938 L 64.25 155.488281 M 55.417969 157.042969 L 64.484375 157.621094 "/>
<path style="fill:none;stroke-width:1.2;stroke-linecap:butt;stroke-linejoin:miter;stroke:rgb(0%,0%,0%);stroke-opacity:1;stroke-miterlimit:10;" d="M 83.332031 117.855469 L 76.945312 92.914062 "/>
<path style=" stroke:none;fill-rule:nonzero;fill:rgb(0%,0%,0%);fill-opacity:1;" d="M 83.332031 117.855469 L 105.589844 131.574219 L 108.9375 123.125 Z M 83.332031 117.855469 "/>
<path style="fill:none;stroke-width:1.2;stroke-linecap:butt;stroke-linejoin:miter;stroke:rgb(0%,0%,0%);stroke-opacity:1;stroke-miterlimit:10;" d="M 107.265625 127.351562 L 109.136719 140.085938 "/>
<path style="fill:none;stroke-width:1.2;stroke-linecap:butt;stroke-linejoin:miter;stroke:rgb(0%,0%,100%);stroke-opacity:1;stroke-miterlimit:10;" d="M 109.136719 140.085938 L 111.007812 152.820312 "/>
<path style="fill:none;stroke-width:1.2;stroke-linecap:butt;stroke-linejoin:miter;stroke:rgb(0%,0%,0%);stroke-opacity:1;stroke-miterlimit:10;" d="M 113.632812 129.015625 L 115.128906 139.207031 "/>
<path style="fill:none;stroke-width:1.2;stroke-linecap:butt;stroke-linejoin:miter;stroke:rgb(0%,0%,100%);stroke-opacity:1;stroke-miterlimit:10;" d="M 115.128906 139.207031 L 116.628906 149.394531 "/>
<path style="fill:none;stroke-width:1.2;stroke-linecap:butt;stroke-linejoin:miter;stroke:rgb(0%,0%,100%);stroke-opacity:1;stroke-miterlimit:10;" d="M 127.453125 111.371094 L 117.359375 119.359375 "/>
<path style="fill:none;stroke-width:1.2;stroke-linecap:butt;stroke-linejoin:miter;stroke:rgb(0%,0%,0%);stroke-opacity:1;stroke-miterlimit:10;" d="M 117.359375 119.359375 L 107.265625 127.351562 "/>
<path style="fill:none;stroke-width:1.2;stroke-linecap:butt;stroke-linejoin:miter;stroke:rgb(0%,0%,100%);stroke-opacity:1;stroke-miterlimit:10;" d="M 111.007812 152.820312 L 122.972656 157.570312 "/>
<path style="fill:none;stroke-width:1.2;stroke-linecap:butt;stroke-linejoin:miter;stroke:rgb(0%,0%,0%);stroke-opacity:1;stroke-miterlimit:10;" d="M 122.972656 157.570312 L 134.9375 162.316406 "/>
<path style=" stroke:none;fill-rule:nonzero;fill:rgb(100%,100%,100%);fill-opacity:1;" d="M 107.007812 146.320312 L 115.007812 146.320312 L 115.007812 159.320312 L 107.007812 159.320312 Z M 107.007812 146.320312 "/>
<g style="fill:rgb(0%,0%,100%);fill-opacity:1;">
  <use xlink:href="#glyph0-1" x="107.007812" y="156.22168"/>
</g>
<path style="fill:none;stroke-width:1.2;stroke-linecap:butt;stroke-linejoin:miter;stroke:rgb(0%,0%,0%);stroke-opacity:1;stroke-miterlimit:10;" d="M 134.9375 162.316406 L 136.8125 175.050781 "/>
<path style="fill:none;stroke-width:1.2;stroke-linecap:butt;stroke-linejoin:miter;stroke:rgb(0%,0%,100%);stroke-opacity:1;stroke-miterlimit:10;" d="M 136.8125 175.050781 L 138.683594 187.789062 "/>
<path style="fill:none;stroke-width:1.2;stroke-linecap:butt;stroke-linejoin:miter;stroke:rgb(0%,0%,0%);stroke-opacity:1;stroke-miterlimit:10;" d="M 134.9375 162.316406 L 155.125 146.335938 "/>
<path style="fill:none;stroke-width:1.2;stroke-linecap:butt;stroke-linejoin:miter;stroke:rgb(0%,0%,0%);stroke-opacity:1;stroke-miterlimit:10;" d="M 133.199219 155.96875 L 149.347656 143.183594 "/>
<path style="fill:none;stroke-width:1.2;stroke-linecap:butt;stroke-linejoin:miter;stroke:rgb(0%,0%,100%);stroke-opacity:1;stroke-miterlimit:10;" d="M 138.683594 187.789062 L 128.589844 195.777344 "/>
<path style="fill:none;stroke-width:1.2;stroke-linecap:butt;stroke-linejoin:miter;stroke:rgb(0%,0%,0%);stroke-opacity:1;stroke-miterlimit:10;" d="M 128.589844 195.777344 L 118.496094 203.765625 "/>
<path style="fill:none;stroke-width:1.2;stroke-linecap:butt;stroke-linejoin:miter;stroke:rgb(0%,0%,100%);stroke-opacity:1;stroke-miterlimit:10;" d="M 138.683594 187.789062 L 150.648438 192.535156 "/>
<path style="fill:none;stroke-width:1.2;stroke-linecap:butt;stroke-linejoin:miter;stroke:rgb(0%,0%,0%);stroke-opacity:1;stroke-miterlimit:10;" d="M 150.648438 192.535156 L 162.613281 197.28125 "/>
<path style=" stroke:none;fill-rule:nonzero;fill:rgb(100%,100%,100%);fill-opacity:1;" d="M 134.683594 181.289062 L 142.683594 181.289062 L 142.683594 194.289062 L 134.683594 194.289062 Z M 134.683594 181.289062 "/>
<g style="fill:rgb(0%,0%,100%);fill-opacity:1;">
  <use xlink:href="#glyph0-1" x="134.683594" y="191.19043"/>
</g>
<path style="fill:none;stroke-width:1.2;stroke-linecap:butt;stroke-linejoin:miter;stroke:rgb(0%,0%,0%);stroke-opacity:1;stroke-miterlimit:10;" d="M 155.125 146.335938 L 179.058594 155.832031 "/>
<path style="fill:none;stroke-width:1.2;stroke-linecap:butt;stroke-linejoin:miter;stroke:rgb(0%,0%,0%);stroke-opacity:1;stroke-miterlimit:10;" d="M 151.382812 120.867188 L 155.125 146.335938 "/>
<path style="fill:none;stroke-width:1.2;stroke-linecap:butt;stroke-linejoin:miter;stroke:rgb(0%,0%,0%);stroke-opacity:1;stroke-miterlimit:10;" d="M 179.058594 155.832031 L 199.246094 139.851562 "/>
<path style="fill:none;stroke-width:1.2;stroke-linecap:butt;stroke-linejoin:miter;stroke:rgb(0%,0%,0%);stroke-opacity:1;stroke-miterlimit:10;" d="M 177.316406 149.484375 L 193.46875 136.699219 "/>
<path style="fill:none;stroke-width:1.2;stroke-linecap:butt;stroke-linejoin:miter;stroke:rgb(0%,0%,0%);stroke-opacity:1;stroke-miterlimit:10;" d="M 199.246094 139.851562 L 195.5 114.378906 "/>
<path style="fill:none;stroke-width:1.2;stroke-linecap:butt;stroke-linejoin:miter;stroke:rgb(0%,0%,0%);stroke-opacity:1;stroke-miterlimit:10;" d="M 199.246094 139.851562 L 223.175781 149.347656 "/>
<path style="fill:none;stroke-width:1.2;stroke-linecap:butt;stroke-linejoin:miter;stroke:rgb(0%,0%,0%);stroke-opacity:1;stroke-miterlimit:10;" d="M 195.5 114.378906 L 171.570312 104.886719 "/>
<path style="fill:none;stroke-width:1.2;stroke-linecap:butt;stroke-linejoin:miter;stroke:rgb(0%,0%,0%);stroke-opacity:1;stroke-miterlimit:10;" d="M 190.875 119.0625 L 171.730469 111.46875 "/>
<path style="fill:none;stroke-width:1.2;stroke-linecap:butt;stroke-linejoin:miter;stroke:rgb(0%,0%,0%);stroke-opacity:1;stroke-miterlimit:10;" d="M 171.570312 104.886719 L 151.382812 120.867188 "/>
<path style="fill:none;stroke-width:1.2;stroke-linecap:butt;stroke-linejoin:miter;stroke:rgb(0%,0%,0%);stroke-opacity:1;stroke-miterlimit:10;" d="M 151.382812 120.867188 L 139.417969 116.117188 "/>
<path style="fill:none;stroke-width:1.2;stroke-linecap:butt;stroke-linejoin:miter;stroke:rgb(0%,0%,100%);stroke-opacity:1;stroke-miterlimit:10;" d="M 139.417969 116.117188 L 127.453125 111.371094 "/>
<path style="fill:none;stroke-width:1.2;stroke-linecap:butt;stroke-linejoin:miter;stroke:rgb(0%,0%,0%);stroke-opacity:1;stroke-miterlimit:10;" d="M 146.753906 125.546875 L 137.183594 121.75 "/>
<path style="fill:none;stroke-width:1.2;stroke-linecap:butt;stroke-linejoin:miter;stroke:rgb(0%,0%,100%);stroke-opacity:1;stroke-miterlimit:10;" d="M 137.183594 121.75 L 127.609375 117.953125 "/>
<path style=" stroke:none;fill-rule:nonzero;fill:rgb(100%,100%,100%);fill-opacity:1;" d="M 123.453125 104.871094 L 131.453125 104.871094 L 131.453125 117.871094 L 123.453125 117.871094 Z M 123.453125 104.871094 "/>
<g style="fill:rgb(0%,0%,100%);fill-opacity:1;">
  <use xlink:href="#glyph0-1" x="123.453125" y="114.772461"/>
</g>
<path style="fill:none;stroke-width:1.2;stroke-linecap:butt;stroke-linejoin:miter;stroke:rgb(0%,0%,0%);stroke-opacity:1;stroke-miterlimit:10;" d="M 223.175781 149.347656 L 244.921875 135.566406 "/>
<path style="fill:none;stroke-width:1.2;stroke-linecap:butt;stroke-linejoin:miter;stroke:rgb(0%,0%,0%);stroke-opacity:1;stroke-miterlimit:10;" d="M 229.5625 174.285156 L 223.175781 149.347656 "/>
<path style="fill:none;stroke-width:1.2;stroke-linecap:butt;stroke-linejoin:miter;stroke:rgb(0%,0%,0%);stroke-opacity:1;stroke-miterlimit:10;" d="M 234.792969 170.289062 L 229.683594 150.335938 "/>
<path style="fill:none;stroke-width:1.2;stroke-linecap:butt;stroke-linejoin:miter;stroke:rgb(0%,0%,0%);stroke-opacity:1;stroke-miterlimit:10;" d="M 244.921875 135.566406 L 254.835938 143.777344 "/>
<path style="fill:none;stroke-width:1.2;stroke-linecap:butt;stroke-linejoin:miter;stroke:rgb(0%,0%,100%);stroke-opacity:1;stroke-miterlimit:10;" d="M 254.835938 143.777344 L 264.75 151.988281 "/>
<path style="fill:none;stroke-width:1.2;stroke-linecap:butt;stroke-linejoin:miter;stroke:rgb(0%,0%,0%);stroke-opacity:1;stroke-miterlimit:10;" d="M 243.042969 141.871094 L 250.972656 148.441406 "/>
<path style="fill:none;stroke-width:1.2;stroke-linecap:butt;stroke-linejoin:miter;stroke:rgb(0%,0%,100%);stroke-opacity:1;stroke-miterlimit:10;" d="M 250.972656 148.441406 L 258.902344 155.011719 "/>
<path style="fill:none;stroke-width:1.2;stroke-linecap:butt;stroke-linejoin:miter;stroke:rgb(0%,0%,100%);stroke-opacity:1;stroke-miterlimit:10;" d="M 264.75 151.988281 L 255.257812 175.921875 "/>
<path style=" stroke:none;fill-rule:nonzero;fill:rgb(100%,100%,100%);fill-opacity:1;" d="M 260.75 145.488281 L 268.75 145.488281 L 268.75 158.488281 L 260.75 158.488281 Z M 260.75 145.488281 "/>
<g style="fill:rgb(0%,0%,100%);fill-opacity:1;">
  <use xlink:href="#glyph0-1" x="260.75" y="155.389648"/>
</g>
<path style="fill:none;stroke-width:1.2;stroke-linecap:butt;stroke-linejoin:miter;stroke:rgb(0%,0%,100%);stroke-opacity:1;stroke-miterlimit:10;" d="M 255.257812 175.921875 L 242.410156 175.105469 "/>
<path style="fill:none;stroke-width:1.2;stroke-linecap:butt;stroke-linejoin:miter;stroke:rgb(0%,0%,0%);stroke-opacity:1;stroke-miterlimit:10;" d="M 242.410156 175.105469 L 229.5625 174.285156 "/>
<path style=" stroke:none;fill-rule:nonzero;fill:rgb(100%,100%,100%);fill-opacity:1;" d="M 247.257812 169.421875 L 264.257812 169.421875 L 264.257812 182.421875 L 247.257812 182.421875 Z M 247.257812 169.421875 "/>
<g style="fill:rgb(0%,0%,100%);fill-opacity:1;">
  <use xlink:href="#glyph0-1" x="247.257812" y="179.323242"/>
  <use xlink:href="#glyph0-2" x="255.241211" y="179.323242"/>
</g>
<path style="fill:none;stroke-width:1.2;stroke-linecap:butt;stroke-linejoin:miter;stroke:rgb(0%,0%,0%);stroke-opacity:1;stroke-miterlimit:10;" d="M 59.953125 157.332031 L 36.882812 168.761719 "/>
<path style="fill:none;stroke-width:1.2;stroke-linecap:butt;stroke-linejoin:miter;stroke:rgb(0%,0%,0%);stroke-opacity:1;stroke-miterlimit:10;" d="M 60.335938 163.902344 L 41.878906 173.046875 "/>
<path style="fill:none;stroke-width:1.2;stroke-linecap:butt;stroke-linejoin:miter;stroke:rgb(0%,0%,0%);stroke-opacity:1;stroke-miterlimit:10;" d="M 81.386719 171.59375 L 59.953125 157.332031 "/>
<path style="fill:none;stroke-width:1.2;stroke-linecap:butt;stroke-linejoin:miter;stroke:rgb(0%,0%,0%);stroke-opacity:1;stroke-miterlimit:10;" d="M 36.882812 168.761719 L 35.25 194.457031 "/>
<path style="fill:none;stroke-width:1.2;stroke-linecap:butt;stroke-linejoin:miter;stroke:rgb(0%,0%,0%);stroke-opacity:1;stroke-miterlimit:10;" d="M 35.25 194.457031 L 56.683594 208.71875 "/>
<path style="fill:none;stroke-width:1.2;stroke-linecap:butt;stroke-linejoin:miter;stroke:rgb(0%,0%,0%);stroke-opacity:1;stroke-miterlimit:10;" d="M 40.75 190.839844 L 57.898438 202.25 "/>
<path style="fill:none;stroke-width:1.2;stroke-linecap:butt;stroke-linejoin:miter;stroke:rgb(0%,0%,0%);stroke-opacity:1;stroke-miterlimit:10;" d="M 56.683594 208.71875 L 79.753906 197.285156 "/>
<path style="fill:none;stroke-width:1.2;stroke-linecap:butt;stroke-linejoin:miter;stroke:rgb(0%,0%,0%);stroke-opacity:1;stroke-miterlimit:10;" d="M 79.753906 197.285156 L 81.386719 171.59375 "/>
<path style="fill:none;stroke-width:1.2;stroke-linecap:butt;stroke-linejoin:miter;stroke:rgb(0%,0%,0%);stroke-opacity:1;stroke-miterlimit:10;" d="M 73.871094 194.332031 L 75.175781 173.777344 "/>
</g>
</svg>

<svg xmlns="http://www.w3.org/2000/svg" xmlns:xlink="http://www.w3.org/1999/xlink" width="300pt" height="300pt" viewBox="0 0 300 300"><defs><symbol overflow="visible"><path d="M.547 1.938V-7.75h5.5v9.688zm.625-.61h4.266v-8.47H1.171zm0 0"/></symbol><symbol overflow="visible" id="a"><path d="M1.078-8.016h1.47l3.546 6.704v-6.704h1.062V0H5.688L2.124-6.703V0H1.078zm0 0"/></symbol><symbol overflow="visible" id="b"><path d="M1.078-8.016h1.094v3.282H6.11v-3.282h1.077V0H6.11v-3.813H2.17V0H1.078zm0 0"/></symbol><symbol overflow="visible"><path d="M.453 1.594v-7.938h4.5v7.938zm.5-.5h3.5v-6.938h-3.5zm0 0"/></symbol><symbol overflow="visible" id="c"><path d="M1.734-.75h3.094V0H.656v-.75c.344-.344.8-.805 1.375-1.39.583-.594.954-.973 1.11-1.14.282-.322.473-.595.58-.814.112-.226.17-.445.17-.656 0-.352-.12-.64-.36-.86-.24-.218-.557-.327-.952-.327-.28 0-.578.054-.89.156-.305.093-.633.24-.985.436v-.906c.352-.133.688-.238 1-.313.313-.082.598-.125.86-.125.675 0 1.218.172 1.624.516.407.344.61.797.61 1.36 0 .273-.055.53-.156.78-.105.243-.288.524-.546.845-.074.085-.31.328-.703.734-.398.406-.95.976-1.656 1.703zm0 0"/></symbol><symbol overflow="visible" id="d"><path d="M4.14-5.64v2.452h2.454v.735H4.14V0h-.734v-2.453H.953v-.735h2.453V-5.64zm0 0"/></symbol></defs><g><path fill="#fff" d="M0 0h300v300H0z"/><path d="M51.254 91.28l-4.746 11.966" stroke-width="1.2" stroke="#00f" stroke-miterlimit="10" fill="none"/><path d="M46.508 103.246l-4.75 11.97M76.945 92.914l-12.843-.816" stroke-width="1.2" stroke="#000" stroke-miterlimit="10" fill="none"/><path d="M64.102 92.098l-12.848-.817" stroke-width="1.2" stroke="#00f" stroke-miterlimit="10" fill="none"/><path d="M36.254 80.78h30v21h-30zm0 0" fill="#fff"/><g fill="#00f"><use xlink:href="#a" x="36.254" y="93.914"/><use xlink:href="#b" x="44.237" y="93.914"/></g><use xlink:href="#c" x="52.262" y="98.797" fill="#00f"/><use xlink:href="#d" x="57.918" y="89.031" fill="#00f"/><path d="M41.758 115.215l19.828 16.422M61.586 131.637l21.746-13.782" stroke-width="1.2" stroke="#000" stroke-miterlimit="10" fill="none"/><path d="M61.586 131.637m-.707 2.914l1.038.067m-1.746 2.852l2.078.132m-2.79 2.78l3.126.2m-3.832 2.715l4.164.266m-4.87 2.652l5.202.328m-5.91 2.586l6.242.397m-6.95 2.516l7.282.465m-7.992 2.453l8.328.528m-8.832 1.555l9.066.578" stroke="#000" stroke-miterlimit="10" fill="none"/><path d="M83.332 117.855l-6.387-24.94" stroke-width="1.2" stroke="#000" stroke-miterlimit="10" fill="none"/><path d="M83.332 117.855l22.258 13.72 3.347-8.45zm0 0"/><path d="M107.266 127.352l1.87 12.734" stroke-width="1.2" stroke="#000" stroke-miterlimit="10" fill="none"/><path d="M109.137 140.086l1.87 12.734" stroke-width="1.2" stroke="#00f" stroke-miterlimit="10" fill="none"/><path d="M113.633 129.016l1.496 10.19" stroke-width="1.2" stroke="#000" stroke-miterlimit="10" fill="none"/><path d="M115.13 139.207l1.5 10.188M127.453 111.37l-10.094 7.99" stroke-width="1.2" stroke="#00f" stroke-miterlimit="10" fill="none"/><path d="M117.36 119.36l-10.094 7.992" stroke-width="1.2" stroke="#000" stroke-miterlimit="10" fill="none"/><path d="M111.008 152.82l11.965 4.75" stroke-width="1.2" stroke="#00f" stroke-miterlimit="10" fill="none"/><path d="M122.973 157.57l11.965 4.746" stroke-width="1.2" stroke="#000" stroke-miterlimit="10" fill="none"/><path d="M107.008 146.32h8v13h-8zm0 0" fill="#fff"/><use xlink:href="#a" x="107.008" y="156.222" fill="#00f"/><path d="M134.938 162.316l1.875 12.735" stroke-width="1.2" stroke="#000" stroke-miterlimit="10" fill="none"/><path d="M136.813 175.05l1.87 12.74" stroke-width="1.2" stroke="#00f" stroke-miterlimit="10" fill="none"/><path d="M134.938 162.316l20.187-15.98M133.2 155.97l16.148-12.786" stroke-width="1.2" stroke="#000" stroke-miterlimit="10" fill="none"/><path d="M138.684 187.79l-10.094 7.987" stroke-width="1.2" stroke="#00f" stroke-miterlimit="10" fill="none"/><path d="M128.59 195.777l-10.094 7.99" stroke-width="1.2" stroke="#000" stroke-miterlimit="10" fill="none"/><path d="M138.684 187.79l11.964 4.745" stroke-width="1.2" stroke="#00f" stroke-miterlimit="10" fill="none"/><path d="M150.648 192.535l11.965 4.746" stroke-width="1.2" stroke="#000" stroke-miterlimit="10" fill="none"/><path d="M134.684 181.29h8v13h-8zm0 0" fill="#fff"/><use xlink:href="#a" x="134.684" y="191.19" fill="#00f"/><path d="M155.125 146.336l23.934 9.496M151.383 120.867l3.742 25.47M179.06 155.832l20.186-15.98M177.316 149.484L193.47 136.7M199.246 139.852L195.5 114.38M199.246 139.852l23.93 9.496M195.5 114.38l-23.93-9.493M190.875 119.063l-19.145-7.594M171.57 104.887l-20.187 15.98M151.383 120.867l-11.965-4.75" stroke-width="1.2" stroke="#000" stroke-miterlimit="10" fill="none"/><path d="M139.418 116.117l-11.965-4.746" stroke-width="1.2" stroke="#00f" stroke-miterlimit="10" fill="none"/><path d="M146.754 125.547l-9.57-3.797" stroke-width="1.2" stroke="#000" stroke-miterlimit="10" fill="none"/><path d="M137.184 121.75l-9.575-3.797" stroke-width="1.2" stroke="#00f" stroke-miterlimit="10" fill="none"/><path d="M123.453 104.87h8v13h-8zm0 0" fill="#fff"/><use xlink:href="#a" x="123.453" y="114.772" fill="#00f"/><path d="M223.176 149.348l21.746-13.782M229.563 174.285l-6.387-24.937M234.793 170.29l-5.11-19.954M244.922 135.566l9.914 8.21" stroke-width="1.2" stroke="#000" stroke-miterlimit="10" fill="none"/><path d="M254.836 143.777l9.914 8.21" stroke-width="1.2" stroke="#00f" stroke-miterlimit="10" fill="none"/><path d="M243.043 141.87l7.93 6.57" stroke-width="1.2" stroke="#000" stroke-miterlimit="10" fill="none"/><path d="M250.973 148.44l7.93 6.572M264.75 151.988l-9.492 23.934" stroke-width="1.2" stroke="#00f" stroke-miterlimit="10" fill="none"/><path d="M260.75 145.488h8v13h-8zm0 0" fill="#fff"/><use xlink:href="#a" x="260.75" y="155.39" fill="#00f"/><path d="M255.258 175.922l-12.848-.817" stroke-width="1.2" stroke="#00f" stroke-miterlimit="10" fill="none"/><path d="M242.41 175.105l-12.847-.82" stroke-width="1.2" stroke="#000" stroke-miterlimit="10" fill="none"/><path d="M247.258 169.422h17v13h-17zm0 0" fill="#fff"/><g fill="#00f"><use xlink:href="#a" x="247.258" y="179.323"/><use xlink:href="#b" x="255.241" y="179.323"/></g><path d="M59.953 157.332l-23.07 11.43M60.336 163.902l-18.457 9.145M81.387 171.594l-21.434-14.262M36.883 168.762l-1.633 25.695M35.25 194.457l21.434 14.262M40.75 190.84l17.148 11.41M56.684 208.72l23.07-11.435M79.754 197.285l1.633-25.69M73.87 194.332l1.306-20.555" stroke-width="1.2" stroke="#000" stroke-miterlimit="10" fill="none"/></g></svg>
